SVG_Azure_Grouped/Management/Automation Account.svg

<?xml version="1.0" encoding="UTF-8" standalone="no"?>
<!-- Generated by Microsoft Visio, SVG Export Automation Account.svg Page-1 -->

<svg
   xmlns:dc="http://purl.org/dc/elements/1.1/"
   xmlns:cc="http://creativecommons.org/ns#"
   xmlns:rdf="http://www.w3.org/1999/02/22-rdf-syntax-ns#"
   xmlns:svg="http://www.w3.org/2000/svg"
   xmlns="http://www.w3.org/2000/svg"
   xmlns:sodipodi="http://sodipodi.sourceforge.net/DTD/sodipodi-0.dtd"
   xmlns:inkscape="http://www.inkscape.org/namespaces/inkscape"
   width="0.78735679in"
   height="0.78680122in"
   viewBox="0 0 56.689597 56.649998"
   xml:space="preserve"
   class="st3"
   version="1.1"
   id="svg49"
   sodipodi:docname="Automation Account.svg"
   style="font-size:12px;overflow:visible;color-interpolation-filters:sRGB;fill:none;fill-rule:evenodd;stroke-linecap:square;stroke-miterlimit:3"
   inkscape:version="0.92.5 (2060ec1f9f, 2020-04-08)"><metadata
   id="metadata53"><rdf:RDF><cc:Work
       rdf:about=""><dc:format>image/svg+xml</dc:format><dc:type
         rdf:resource="http://purl.org/dc/dcmitype/StillImage" /></cc:Work></rdf:RDF></metadata><sodipodi:namedview
   pagecolor="#ffffff"
   bordercolor="#666666"
   borderopacity="1"
   objecttolerance="10"
   gridtolerance="10"
   guidetolerance="10"
   inkscape:pageopacity="0"
   inkscape:pageshadow="2"
   inkscape:window-width="640"
   inkscape:window-height="480"
   id="namedview51"
   showgrid="false"
   inkscape:zoom="1.4193119"
   inkscape:cx="37.795128"
   inkscape:cy="37.726733"
   inkscape:window-x="0"
   inkscape:window-y="0"
   inkscape:window-maximized="0"
   inkscape:current-layer="svg49" />
	<style
   type="text/css"
   id="style2">
	<![CDATA[
		.st1 {fill:url(#grad0-6);stroke:none;stroke-linecap:butt;stroke-width:34}
		.st2 {fill:url(#grad0-10);stroke:none;stroke-linecap:butt;stroke-width:34}
		.st3 {fill:none;fill-rule:evenodd;font-size:12px;overflow:visible;stroke-linecap:square;stroke-miterlimit:3}
	]]>
	</style>

	<defs
   id="Patterns_And_Gradients">
		<linearGradient
   id="grad0-6"
   x1="0"
   y1="68.084024"
   x2="56.669996"
   y2="68.084024"
   gradientTransform="scale(1.000353,0.99964714)"
   gradientUnits="userSpaceOnUse">
			<stop
   offset="0"
   stop-color="#0078d4"
   stop-opacity="1"
   id="stop4" />
			<stop
   offset="0.065"
   stop-color="#0a7cd7"
   stop-opacity="1"
   id="stop6" />
			<stop
   offset="0.34"
   stop-color="#2e8ce1"
   stop-opacity="1"
   id="stop8" />
			<stop
   offset="0.595"
   stop-color="#4897e9"
   stop-opacity="1"
   id="stop10" />
			<stop
   offset="0.82"
   stop-color="#589eed"
   stop-opacity="1"
   id="stop12" />
			<stop
   offset="1"
   stop-color="#5ea0ef"
   stop-opacity="1"
   id="stop14" />
		</linearGradient>
		<linearGradient
   id="grad0-10"
   x1="0.0031369669"
   y1="54.750349"
   x2="38.170394"
   y2="54.750349"
   gradientTransform="scale(0.75104395,1.33148)"
   gradientUnits="userSpaceOnUse">
			<stop
   offset="0"
   stop-color="#fea11b"
   stop-opacity="1"
   id="stop17" />
			<stop
   offset="0.285"
   stop-color="#fea51a"
   stop-opacity="1"
   id="stop19" />
			<stop
   offset="0.545"
   stop-color="#feb018"
   stop-opacity="1"
   id="stop21" />
			<stop
   offset="0.8"
   stop-color="#ffc314"
   stop-opacity="1"
   id="stop23" />
			<stop
   offset="1"
   stop-color="#ffd70f"
   stop-opacity="1"
   id="stop25" />
		</linearGradient>
	</defs>
	<g
   id="g47"
   transform="translate(-34.000441,-33.999705)">
		<title
   id="title29">Page-1</title>
		<g
   id="group13172-1"
   transform="translate(34,-34.0157)">
			<title
   id="title31">Automation Account.13172</title>
			<g
   id="group13173-2">
				<title
   id="title33">Sheet.13173</title>
				<g
   id="shape13174-3"
   transform="translate(0,-0.0445949)">
					<title
   id="title35">Sheet.13174</title>
					<path
   d="m 56.69,99.44 v -6.45 l -0.91,-0.35 -6.91,-2.26 -1.82,-4.42 3.51,-7.48 -4.53,-4.53 -0.9,0.46 -6.47,3.28 -4.42,-1.81 -2.84,-7.82 h -6.46 l -0.34,0.91 -2.27,6.91 -4.42,1.81 -7.37,-3.5 L 6,78.71 6.46,79.62 9.75,86.07 7.94,90.49 0,93.33 v 6.45 l 0.91,0.34 6.91,2.27 1.82,4.42 -3.51,7.48 4.53,4.53 0.91,-0.46 6.47,-3.28 4.42,1.81 2.84,7.82 h 6.46 l 0.34,-0.91 2.27,-6.91 4.42,-1.81 7.48,3.5 4.54,-4.53 -0.46,-0.9 -3.28,-6.46 1.81,-4.42 z m -28.35,9.37 A 12.4341,12.4229 0 1 1 40.78,96.38 12.4341,12.4229 0 0 1 28.34,108.81 Z"
   class="st1"
   id="path37"
   inkscape:connector-curvature="0"
   style="fill:url(#grad0-6);stroke:none;stroke-width:34;stroke-linecap:butt" />
				</g>
				<g
   id="shape13175-7"
   transform="translate(14.5383)">
					<title
   id="title40">Sheet.13175</title>
					<path
   d="M 12.08,101.16 H 0.64 a 0.615326,0.614773 0 0 1 -0.637644,-0.57655 0.516492,0.516027 0 0 1 0.0573879,-0.23571 L 13.78,73.24 a 0.659961,0.659368 0 0 1 0.593009,-0.340833 L 27.9,72.9 a 0.615326,0.614773 0 0 1 0.637644,0.576549 0.526056,0.525583 0 0 1 -0.111588,0.318535 L 12.32,95.01 h 15.71 a 0.615326,0.614773 0 0 1 0.637644,0.576549 0.545185,0.544695 0 0 1 -0.165787,0.385428 L 2.38,123.12 c -0.24,0.14 -1.99,1.59 -1.13,-0.61 z"
   class="st2"
   id="path42"
   inkscape:connector-curvature="0"
   style="fill:url(#grad0-10);stroke:none;stroke-width:34;stroke-linecap:butt" />
				</g>
			</g>
		</g>
	</g>
</svg>

<?xml version="1.0" encoding="UTF-8" standalone="no"?>
<!DOCTYPE svg PUBLIC "-//W3C//DTD SVG 1.1//EN" "http://www.w3.org/Graphics/SVG/1.1/DTD/svg11.dtd">
<!-- Generated by Microsoft Visio, SVG Export Automation Account.svg Page-1 -->
<svg xmlns="http://www.w3.org/2000/svg" xmlns:xlink="http://www.w3.org/1999/xlink" xmlns:ev="http://www.w3.org/2001/xml-events"
		width="1.73185in" height="1.73206in" viewBox="0 0 124.693 124.709" xml:space="preserve" color-interpolation-filters="sRGB"
		class="st3">
	<style type="text/css">
	<![CDATA[
		.st1 {fill:url(#grad0-6);stroke:none;stroke-linecap:butt;stroke-width:34}
		.st2 {fill:url(#grad0-10);stroke:none;stroke-linecap:butt;stroke-width:34}
		.st3 {fill:none;fill-rule:evenodd;font-size:12px;overflow:visible;stroke-linecap:square;stroke-miterlimit:3}
	]]>
	</style>

	<defs id="Patterns_And_Gradients">
		<linearGradient id="grad0-6" x1="0" y1="0" x2="1" y2="0" gradientTransform="rotate(-90 0.5 0.5)">
			<stop offset="0" stop-color="#0078d4" stop-opacity="1"/>
			<stop offset="0.065" stop-color="#0a7cd7" stop-opacity="1"/>
			<stop offset="0.34" stop-color="#2e8ce1" stop-opacity="1"/>
			<stop offset="0.595" stop-color="#4897e9" stop-opacity="1"/>
			<stop offset="0.82" stop-color="#589eed" stop-opacity="1"/>
			<stop offset="1" stop-color="#5ea0ef" stop-opacity="1"/>
		</linearGradient>
		<linearGradient id="grad0-10" x1="0" y1="0" x2="1" y2="0" gradientTransform="rotate(-90 0.5 0.5)">
			<stop offset="0" stop-color="#fea11b" stop-opacity="1"/>
			<stop offset="0.285" stop-color="#fea51a" stop-opacity="1"/>
			<stop offset="0.545" stop-color="#feb018" stop-opacity="1"/>
			<stop offset="0.8" stop-color="#ffc314" stop-opacity="1"/>
			<stop offset="1" stop-color="#ffd70f" stop-opacity="1"/>
		</linearGradient>
	</defs>
	<g>
		<title>Page-1</title>
		<g id="group12879-1" transform="translate(34,-34.0157)">
			<title>Automation Account.12879</title>
			<g id="group12880-2">
				<title>Sheet.12880</title>
				<g id="shape12881-3" transform="translate(0,-0.0445949)">
					<title>Sheet.12881</title>
					<path d="M56.69 99.44 L56.69 92.99 L55.78 92.64 L48.87 90.38 L47.05 85.96 L50.56 78.48 L46.03 73.95 L45.13 74.41
								 L38.66 77.69 L34.24 75.88 L31.4 68.06 L24.94 68.06 L24.6 68.97 L22.33 75.88 L17.91 77.69 L10.54
								 74.19 L6 78.71 L6.46 79.62 L9.75 86.07 L7.94 90.49 L0 93.33 L0 99.78 L0.91 100.12 L7.82 102.39 L9.64
								 106.81 L6.13 114.29 L10.66 118.82 L11.57 118.36 L18.04 115.08 L22.46 116.89 L25.3 124.71 L31.76
								 124.71 L32.1 123.8 L34.37 116.89 L38.79 115.08 L46.27 118.58 L50.81 114.05 L50.35 113.15 L47.07
								 106.69 L48.88 102.27 L56.69 99.44 ZM28.34 108.81 A12.4341 12.4229 0 1 1 40.78 96.38 A12.4341 12.4229
								 0 0 1 28.34 108.81 Z" class="st1"/>
				</g>
				<g id="shape12882-7" transform="translate(14.5383,-2.84217E-13)">
					<title>Sheet.12882</title>
					<path d="M12.08 101.16 L0.64 101.16 a0.615326 0.614773 0 0 1 -0.637644 -0.576549 a0.516492 0.516027 0 0 1 0.0573879
								 -0.235716 L13.78 73.24 a0.659961 0.659368 0 0 1 0.593009 -0.340833 L27.9 72.9 a0.615326 0.614773
								 0 0 1 0.637644 0.576549 a0.526056 0.525583 0 0 1 -0.111588 0.318535 L12.32 95.01 L28.03 95.01 a0.615326
								 0.614773 0 0 1 0.637644 0.576549 a0.545185 0.544695 0 0 1 -0.165787 0.385428 L2.38 123.12 C2.14
								 123.26 0.39 124.71 1.25 122.51 L12.08 101.16 Z" class="st2"/>
				</g>
			</g>
		</g>
	</g>
</svg>
